X:0
T:To Daunton Me
G:strathspey
N:based on a Lowland song from the early 18th century (see the
N:tunes from Mitchell's "The Highland Fair" of 1731 on my website)
N:see The Merry Muses of Caledonia for a spectacularly bawdy text
M:C
L:1/8
Q:1/4=120
K:EDor
G>A|B2   E2  E2   A>G|F>GE>F D2d>e|f>ed>B dF|B2 E2  E2:|
F>E|D2   d2  d2   B>c|d>ed>B A2d>c|B2 e2  e2 e>f|g>fe>d B2
d>e|f2 (3agf e2 (3gfe|d>ed>B A2d>e|f>ed>B dF|B2 E2  E2|]
